!!!SOCIAL_FUNCTION:	songs of the drum religion
!!!PDT:	1932
!!!OTL: No_96_Song_for_Leaders_of_the_Ceremony_(a).krn
!!!REG: Wisconsin
!!!LANG: Non-Tone
!!!LING_GROUP: Algonquin
**kern
*staff1
=1-
*clefF4
*k[b-]
*M2/4
4r
8r
8A\
=2
4c\
8c\L
8A\J
=3||
*M3/4
4c\
8A\L
8A\J
8r
8A\
=4
4c\
8A\L
8G\J
8F\L
8G\J
=5
16F\LL
16F\J
8D\J
4.C/
8AA/
=6
8C/L
8C/J
8C/L
8AA/J
8.AA/L
16AA/Jk
=7
2AA/
8AA/
8r
=8||
*M2/4
8A\L
8A\J
8A\L
8A\J
=9||
*M3/4
8c\L
8A\J
8A\L
8G\J
8F\L
8G\J
=10
16F\LL
16F\J
8D\J
4.C/
8AA/
=11
8C/L
8C/J
8C/L
8AA/J
8.AA/L
16AA/Jk
=12
2AA/
8AA/
8r
=13
8A\L
8A\J
4A\
8A\L
8c\J
=14||
*M5/8
8A\L
8A\
8G\
8F\
8G\J
=15||
*M3/4
16F\LL
16F\J
8D\J
4.C/
8AA/
=16
8C/L
8C/J
8C/L
8AA/J
8.AA/L
16AA/Jk
=17
2AA/
8AA/
8r
==
*-
